!!!COM: Richard Strauss
!!!CNT: Deutscher
!!!TXO: Deutsche 
!!!OTL: Zueignung
!!!OPS: Opus 10
!!!ONM: No. 1
!!!LYR: Hermann v. Gilm
!!!ENC: Brian Bice
!!!YOR: Lieder, Complete Edition, vol. 1
!!!ODT: 1885
!!NB: Vocal melody and text only encoded.
**kern	**silbe
*clefG2	*
*k[]	*
*M4/4	*
=3	=3
{4.g	{Ja,
8g	du
4cc	weisst
4cc	es
=4	=4
4.ee	teu-
8dd	-re
4b	See-
4cc}	-le,}
=5	=5
8r	.
{4a	{dass
8a	ich
4cc	fern
4g	von
=6	=6
(8a	dir
4b)	|
8cc	mich
4dd	qua2-
4ee}	-le,}
=7	=7
8r	.
{4ff	{Lie-
8ff	-be
4.ff	macht
8cc	die
=8	=8
4ee	Her-
4dd	-zen
2cc}	krank,}
=9	=9
2r	.
4r	.
{8.g	{ha-
16g	-be
=10	=10
1b-}	Dank.}
=12	=12
{4.g	{Einst
8g	hielt
4cc	ich,
4cc	der
=13	=13
4.ee	Frei-
8dd	-heit
4b	Ze-
4cc}	-cher,}
=14	=14
8r	.
{4a	{hoch
8a	den
4cc	A-
4g	-me-
=15	=15
(8a	-thy-
4b)	|
8cc	-sten-
4dd	Be-
4ee}	-cher}
=16	=16
8r	.
{4ff	{und
8ff	du
4.ff	seg-
8dd	-ne-
=17	=17
4cc	-test
4b-	den
2a}	Trank,}
=18	=18
{8.g	{ha-
16g	-be
2b-}	Dank.}
4r	.
=21	=21
{4.g	{Und
8g	be-
4cc	-schworst
4cc	da-
=22	=22
4.ee	-rin
8dd	die
4b	Bo2-
4cc}	-sen,}
=23	=23
{4a	{bis
4a	ich,
8r	.
4cc	was
8g	ich
=24	=24
(8a	nie
4b)	|
8cc	ge-
4dd	-we-
4ee}	-sen,}
=25	=25
8r	.
{4aa	{hei-
8gg	-lig,
4ff	hei-
8b	-lig
8cc	an's
=26	=26
4.ee	Herz
8dd	dir
2e}	sank}
=28	=28
2r	.
4r	.
{8.g	{ha-
16g	-be
=29	=29
1ee}	Dank.}
*-	*-
